X: 1
T: the Top o' the Grampians
C: Colin MacPherson
R: strathspey
B: RSCDS __-6 (Harp & Claymore)
Z: 1997 by John Chambers <jc:trillian.mit.edu>
M: C
L: 1/8
K: G
B |\
   "G"d>e d>B "Em"A<G G>B | "Am"A<e e>d "D7"e>g e<d |\
[1 "G"d>e d>B "Em"A<G G>E | "D7"D>B, D>E "G"G2-G :|\
[2 "Em"B<e e>d "Bm"B<d d>B | "Am"A>G "D7"A<B "G"G2-G |]
|: d |\
   "G"g>b ag "C"e<g "G"d2 | "Am"e<a ag "D7"e<a a>b |\
[1 "G"g>b ag "C"e<g "G"d2 | "D7"g<g b>a "G"g2-g :|\
[2 "G"b>g "D"a>f "Em"(3gfe "Bm"d>B | "Am"c>A "D7"d>B "G"G2-G |]
